;FLAVOR:Marlin
;TIME:3274
;Filament used: 3.86534m
;Layer height: 0.3
;MINX:31.003
;MINY:44.288
;MINZ:0.3
;MAXX:199.53
;MAXY:132.596
;MAXZ:11.1
;Generated with Cura_SteamEngine 4.5.0
M140 S60
M105
M190 S60
M104 S210
M105
M109 S210
M82 ;absolute extrusion mode
; Ender 3 Custom Start G-code
G92 E0 ; Reset Extruder
G28 ; Home all axes
G1 Z2.0 F3000 ; Move Z Axis up little to prevent scratching of Heat Bed
G1 X0.1 Y20 Z0.3 F5000.0 ; Move to start position
G1 X0.1 Y200.0 Z0.3 F1500.0 E15 ; Draw the first line
G1 X0.4 Y200.0 Z0.3 F5000.0 ; Move to side a little
G1 X0.4 Y20 Z0.3 F1500.0 E30 ; Draw the second line
G92 E0 ; Reset Extruder
G1 Z2.0 F3000 ; Move Z Axis up little to prevent scratching of Heat Bed
G1 X5 Y20 Z0.3 F5000.0 ; Move over to prevent blob squish
G92 E0
G92 E0
G1 F2400 E-4.4
;LAYER_COUNT:37
;LAYER:0
M107
M204 S1000
M205 X12 Y12
G0 F3600 X73.929 Y64.522 Z0.3
M204 S500
M205 X8 Y8
;TYPE:SKIRT
G1 F2400 E0
G1 F1350 X74.475 Y63.929 E0.04501
G1 X75.077 Y63.392 E0.09005
G1 X75.73 Y62.917 E0.13513
G1 X76.426 Y62.51 E0.18014
G1 X77.159 Y62.173 E0.22519
G1 X77.922 Y61.91 E0.27025
G1 X78.707 Y61.725 E0.31528
G1 X79.506 Y61.617 E0.36029
G1 X80.186 Y61.589 E0.39829
G1 X152.214 Y61.589 E4.41978
G1 X153.02 Y61.629 E4.46483
G1 X153.818 Y61.749 E4.50989
G1 X154.6 Y61.946 E4.55491
G1 X155.358 Y62.221 E4.59993
G1 X156.086 Y62.569 E4.64498
G1 X156.776 Y62.987 E4.69002
G1 X157.421 Y63.472 E4.73508
G1 X158.014 Y64.018 E4.78009
G1 X158.551 Y64.62 E4.82513
G1 X159.026 Y65.273 E4.87021
G1 X159.433 Y65.969 E4.91523
G1 X159.77 Y66.702 E4.96027
G1 X160.033 Y67.465 E5.00533
G1 X160.218 Y68.25 E5.05036
G1 X160.26 Y68.557 E5.06766
G1 X160.433 Y68.854 E5.08685
G1 X160.77 Y69.587 E5.13189
G1 X161.033 Y70.35 E5.17695
G1 X161.218 Y71.135 E5.22198
G1 X161.326 Y71.934 E5.267
G1 X161.354 Y72.614 E5.30499
G1 X161.354 Y75.938 E5.49058
G1 X161.314 Y76.744 E5.53564
G1 X161.194 Y77.542 E5.58069
G1 X160.997 Y78.324 E5.62572
G1 X160.722 Y79.082 E5.67074
G1 X160.374 Y79.81 E5.71579
G1 X159.956 Y80.5 E5.76083
G1 X159.471 Y81.145 E5.80589
G1 X158.925 Y81.738 E5.85089
G1 X158.323 Y82.275 E5.89593
G1 X157.67 Y82.75 E5.94101
G1 X156.974 Y83.157 E5.98603
G1 X156.241 Y83.494 E6.03107
G1 X155.478 Y83.757 E6.07613
G1 X154.693 Y83.942 E6.12116
G1 X153.894 Y84.05 E6.16618
G1 X153.214 Y84.078 E6.20418
G1 X143.7 Y84.078 E6.73536
G1 X142.894 Y84.038 E6.78042
G1 X142.096 Y83.918 E6.82548
G1 X141.314 Y83.721 E6.8705
G1 X140.556 Y83.446 E6.91552
G1 X139.828 Y83.098 E6.96057
G1 X139.138 Y82.68 E7.00561
G1 X138.493 Y82.195 E7.05067
G1 X137.9 Y81.649 E7.09567
G1 X137.363 Y81.047 E7.14072
G1 X137.298 Y80.958 E7.14687
G1 X137.157 Y81.145 E7.15994
G1 X136.611 Y81.738 E7.20495
G1 X136.009 Y82.275 E7.24999
G1 X135.356 Y82.75 E7.29507
G1 X134.66 Y83.157 E7.34009
G1 X133.927 Y83.494 E7.38513
G1 X133.164 Y83.757 E7.43019
G1 X132.379 Y83.942 E7.47522
G1 X131.58 Y84.05 E7.52024
G1 X130.9 Y84.078 E7.55823
G1 X122.6 Y84.078 E8.02164
G1 X121.794 Y84.038 E8.0667
G1 X120.996 Y83.918 E8.11175
G1 X120.214 Y83.721 E8.15678
G1 X119.456 Y83.446 E8.2018
G1 X118.728 Y83.098 E8.24685
G1 X118.038 Y82.68 E8.29189
G1 X117.393 Y82.195 E8.33695
G1 X116.8 Y81.649 E8.38195
G1 X116.263 Y81.047 E8.42699
G1 X116.198 Y80.958 E8.43315
G1 X116.057 Y81.145 E8.44622
G1 X115.511 Y81.738 E8.49123
G1 X114.909 Y82.275 E8.53627
G1 X114.256 Y82.75 E8.58135
G1 X113.56 Y83.157 E8.62637
G1 X112.827 Y83.494 E8.67141
G1 X112.064 Y83.757 E8.71647
G1 X111.279 Y83.942 E8.7615
G1 X110.48 Y84.05 E8.80651
G1 X109.8 Y84.078 E8.84451
G1 X101.5 Y84.078 E9.30792
G1 X100.694 Y84.038 E9.35298
G1 X99.896 Y83.918 E9.39803
G1 X99.114 Y83.721 E9.44306
G1 X98.356 Y83.446 E9.48808
G1 X97.628 Y83.098 E9.53313
G1 X96.938 Y82.68 E9.57817
G1 X96.293 Y82.195 E9.62323
G1 X95.7 Y81.649 E9.66823
G1 X95.163 Y81.047 E9.71327
G1 X95.098 Y80.958 E9.71942
G1 X94.957 Y81.145 E9.7325
G1 X94.411 Y81.738 E9.77751
G1 X93.809 Y82.275 E9.82255
G1 X93.156 Y82.75 E9.86763
G1 X92.46 Y83.157 E9.91265
G1 X91.727 Y83.494 E9.95769
G1 X90.964 Y83.757 E10.00275
G1 X90.179 Y83.942 E10.04778
G1 X89.38 Y84.05 E10.09279
G1 X88.7 Y84.078 E10.13079
G1 X79.186 Y84.078 E10.66198
G1 X78.38 Y84.038 E10.70704
G1 X77.582 Y83.918 E10.75209
G1 X76.8 Y83.721 E10.79712
G1 X76.042 Y83.446 E10.84214
G1 X75.314 Y83.098 E10.88719
G1 X74.624 Y82.68 E10.93223
G1 X73.979 Y82.195 E10.97728
G1 X73.386 Y81.649 E11.02229
G1 X72.849 Y81.047 E11.06733
G1 X72.374 Y80.394 E11.11241
G1 X71.967 Y79.698 E11.15743
G1 X71.63 Y78.965 E11.20247
G1 X71.367 Y78.202 E11.24753
G1 X71.182 Y77.417 E11.29256
G1 X71.074 Y76.618 E11.33758
G1 X71.046 Y75.938 E11.37558
G1 X71.046 Y72.614 E11.56116
G1 X71.086 Y71.808 E11.60622
G1 X71.206 Y71.01 E11.65127
G1 X71.403 Y70.228 E11.6963
G1 X71.678 Y69.47 E11.74132
G1 X72.026 Y68.742 E11.78637
G1 X72.142 Y68.55 E11.79889
G1 X72.206 Y68.125 E11.82289
G1 X72.403 Y67.343 E11.86791
G1 X72.678 Y66.585 E11.91293
G1 X73.026 Y65.857 E11.95799
G1 X73.444 Y65.167 E12.00303
G1 X73.639 Y64.908 E12.02113
G0 F1215 X73.929 Y64.522
M204 S1000
M205 X12 Y12
G0 F3600 X74.365 Y64.689
M204 S500
M205 X8 Y8
G1 F1350 X74.908 Y64.123 E12.06492
G1 X75.506 Y63.615 E12.10873
G1 X76.152 Y63.17 E12.15253
G1 X76.841 Y62.794 E12.19635
G1 X77.564 Y62.489 E12.24016
G1 X78.314 Y62.26 E12.28394
G1 X79.084 Y62.108 E12.32776
G1 X80.186 Y62.029 E12.38945
G1 X152.214 Y62.029 E16.41093
G1 X152.998 Y62.069 E16.45476
G1 X153.773 Y62.188 E16.49854
G1 X154.532 Y62.386 E16.54234
G1 X155.267 Y62.66 E16.58613
G1 X155.971 Y63.008 E16.62998
G1 X156.635 Y63.425 E16.67375
G1 X157.254 Y63.908 E16.71759
G1 X157.82 Y64.451 E16.76138
G1 X158.328 Y65.049 E16.80519
G1 X158.773 Y65.695 E16.84899
G1 X159.149 Y66.384 E16.89281
G1 X159.454 Y67.107 E16.93662
G1 X159.683 Y67.857 E16.98041
G1 X159.835 Y68.627 E17.02423
G1 X159.84 Y68.704 E17.02853
G1 X160.149 Y69.269 E17.06449
G1 X160.454 Y69.992 E17.1083
G1 X160.683 Y70.742 E17.15208
G1 X160.835 Y71.512 E17.1959
G1 X160.914 Y72.614 E17.25759
G1 X160.914 Y75.938 E17.44317
G1 X160.874 Y76.722 E17.487
G1 X160.755 Y77.497 E17.53078
G1 X160.557 Y78.256 E17.57458
G1 X160.283 Y78.991 E17.61837
G1 X159.935 Y79.695 E17.66222
G1 X159.518 Y80.359 E17.70599
G1 X159.035 Y80.978 E17.74983
G1 X158.492 Y81.544 E17.79362
G1 X157.894 Y82.052 E17.83743
G1 X157.248 Y82.497 E17.88123
G1 X156.559 Y82.873 E17.92505
G1 X155.836 Y83.178 E17.96886
G1 X155.086 Y83.407 E18.01265
G1 X154.316 Y83.559 E18.05647
G1 X153.214 Y83.638 E18.11815
G1 X143.7 Y83.638 E18.64934
G1 X142.916 Y83.598 E18.69317
G1 X142.141 Y83.479 E18.73695
G1 X141.382 Y83.281 E18.78074
G1 X140.647 Y83.007 E18.82454
G1 X139.943 Y82.659 E18.86838
G1 X139.279 Y82.242 E18.91216
G1 X138.66 Y81.759 E18.956
G1 X138.094 Y81.216 E18.99979
G1 X137.586 Y80.618 E19.0436
G1 X137.301 Y80.204 E19.07166
G1 X137.204 Y80.359 E19.08187
G1 X136.721 Y80.978 E19.1257
G1 X136.178 Y81.544 E19.1695
G1 X135.58 Y82.052 E19.2133
G1 X134.934 Y82.497 E19.2571
G1 X134.245 Y82.873 E19.30092
G1 X133.522 Y83.178 E19.34474
G1 X132.772 Y83.407 E19.38852
G1 X132.002 Y83.559 E19.43234
G1 X130.9 Y83.638 E19.49402
G1 X122.6 Y83.638 E19.95743
G1 X121.816 Y83.598 E20.00126
G1 X121.041 Y83.479 E20.04504
G1 X120.282 Y83.281 E20.08883
G1 X119.547 Y83.007 E20.13263
G1 X118.843 Y82.659 E20.17647
G1 X118.179 Y82.242 E20.22025
G1 X117.56 Y81.759 E20.26409
G1 X116.994 Y81.216 E20.30788
G1 X116.486 Y80.618 E20.35169
G1 X116.201 Y80.204 E20.37975
G1 X116.104 Y80.359 E20.38996
G1 X115.621 Y80.978 E20.4338
G1 X115.078 Y81.544 E20.47759
G1 X114.48 Y82.052 E20.5214
G1 X113.834 Y82.497 E20.56519
G1 X113.145 Y82.873 E20.60902
G1 X112.422 Y83.178 E20.65283
G1 X111.672 Y83.407 E20.69661
G1 X110.902 Y83.559 E20.74043
G1 X109.8 Y83.638 E20.80212
G1 X101.5 Y83.638 E21.26552
G1 X100.716 Y83.598 E21.30935
G1 X99.941 Y83.479 E21.35313
G1 X99.182 Y83.281 E21.39693
G1 X98.447 Y83.007 E21.44072
G1 X97.743 Y82.659 E21.48457
G1 X97.079 Y82.242 E21.52834
G1 X96.46 Y81.759 E21.57218
G1 X95.894 Y81.216 E21.61597
G1 X95.386 Y80.618 E21.65978
G1 X95.101 Y80.204 E21.68784
G1 X95.004 Y80.359 E21.69805
G1 X94.521 Y80.978 E21.74189
G1 X93.978 Y81.544 E21.78568
G1 X93.38 Y82.052 E21.82949
G1 X92.734 Y82.497 E21.87329
G1 X92.045 Y82.873 E21.91711
G1 X91.322 Y83.178 E21.96092
G1 X90.572 Y83.407 E22.0047
G1 X89.802 Y83.559 E22.04852
G1 X88.7 Y83.638 E22.11021
G1 X79.186 Y83.638 E22.6414
G1 X78.402 Y83.598 E22.68523
G1 X77.627 Y83.479 E22.729
G1 X76.868 Y83.281 E22.7728
G1 X76.133 Y83.007 E22.81659
G1 X75.429 Y82.659 E22.86044
G1 X74.765 Y82.242 E22.90422
G1 X74.146 Y81.759 E22.94805
G1 X73.58 Y81.216 E22.99185
G1 X73.072 Y80.618 E23.03565
G1 X72.627 Y79.972 E23.07945
G1 X72.251 Y79.283 E23.12327
G1 X71.946 Y78.56 E23.16709
G1 X71.717 Y77.81 E23.21087
G1 X71.565 Y77.04 E23.25469
G1 X71.486 Y75.938 E23.31637
G1 X71.486 Y72.614 E23.50196
G1 X71.526 Y71.83 E23.54579
G1 X71.645 Y71.055 E23.58957
G1 X71.843 Y70.296 E23.63336
G1 X72.117 Y69.561 E23.67716
G1 X72.465 Y68.857 E23.721
G1 X72.564 Y68.7 E23.73137
G1 X72.645 Y68.17 E23.7613
G1 X72.843 Y67.411 E23.8051
G1 X73.117 Y66.676 E23.84889
G1 X73.465 Y65.972 E23.89274
G1 X73.882 Y65.308 E23.93651
G1 X74.068 Y65.07 E23.95338
G0 F1215 X74.365 Y64.689
M204 S1000
M205 X12 Y12
G0 F3600 X74.8 Y64.861
M204 S500
M205 X8 Y8
G1 F1350 X75.34 Y64.323 E23.99594
G1 X75.933 Y63.845 E24.03846
G1 X76.573 Y63.432 E24.08099
G1 X77.252 Y63.088 E24.12349
G1 X77.965 Y62.817 E24.16607
G1 X78.701 Y62.622 E24.20858
G1 X79.454 Y62.506 E24.25112
G1 X80.186 Y62.469 E24.29204
G1 X152.214 Y62.469 E28.31353
G1 X152.975 Y62.509 E28.35608
G1 X153.727 Y62.628 E28.39858
G1 X154.463 Y62.826 E28.44114
G1 X155.174 Y63.1 E28.48368
G1 X155.852 Y63.446 E28.52618
G1 X156.491 Y63.862 E28.56875
G1 X157.082 Y64.343 E28.61129
G1 X157.62 Y64.883 E28.65385
G1 X158.098 Y65.476 E28.69638
G1 X158.511 Y66.116 E28.7389
G1 X158.855 Y66.795 E28.7814
G1 X159.126 Y67.508 E28.82399
G1 X159.321 Y68.244 E28.8665
G1 X159.415 Y68.852 E28.90085
G1 X159.511 Y69.001 E28.91074
G1 X159.855 Y69.68 E28.95324
G1 X160.126 Y70.393 E28.99583
G1 X160.321 Y71.129 E29.03834
G1 X160.437 Y71.882 E29.08088
G1 X160.474 Y72.614 E29.1218
G1 X160.474 Y75.938 E29.30739
G1 X160.434 Y76.699 E29.34993
G1 X160.315 Y77.451 E29.39244
G1 X160.117 Y78.187 E29.43499
G1 X159.843 Y78.898 E29.47754
G1 X159.497 Y79.576 E29.52004
G1 X159.081 Y80.215 E29.56261
G1 X158.6 Y80.806 E29.60515
G1 X158.06 Y81.344 E29.64771
G1 X157.467 Y81.822 E29.69023
G1 X156.827 Y82.235 E29.73276
G1 X156.148 Y82.579 E29.77526
G1 X155.435 Y82.85 E29.81785
G1 X154.699 Y83.045 E29.86036
G1 X153.946 Y83.161 E29.90289
G1 X153.214 Y83.198 E29.94382
G1 X143.7 Y83.198 E30.475
G1 X142.939 Y83.158 E30.51755
G1 X142.187 Y83.039 E30.56006
G1 X141.451 Y82.841 E30.60261
G1 X140.74 Y82.567 E30.64515
G1 X140.062 Y82.221 E30.68765
G1 X139.423 Y81.805 E30.73022
G1 X138.832 Y81.324 E30.77277
G1 X138.294 Y80.784 E30.81533
G1 X137.816 Y80.191 E30.85785
G1 X137.45 Y79.624 E30.89553
G1 X137.152 Y79.624 E30.91217
G1 X136.767 Y80.215 E30.95155
G1 X136.286 Y80.806 E30.99409
G1 X135.746 Y81.344 E31.03665
G1 X135.153 Y81.822 E31.07918
G1 X134.513 Y82.235 E31.12171
G1 X133.834 Y82.579 E31.1642
G1 X133.121 Y82.85 E31.20679
G1 X132.385 Y83.045 E31.2493
G1 X131.632 Y83.161 E31.29184
G1 X130.9 Y83.198 E31.33276
G1 X122.6 Y83.198 E31.79617
G1 X121.839 Y83.158 E31.83871
G1 X121.087 Y83.039 E31.88122
G1 X120.351 Y82.841 E31.92378
G1 X119.64 Y82.567 E31.96632
G1 X118.962 Y82.221 E32.00882
G1 X118.323 Y81.805 E32.05139
G1 X117.732 Y81.324 E32.09393
G1 X117.194 Y80.784 E32.13649
G1 X116.716 Y80.191 E32.17902
G1 X116.35 Y79.624 E32.2167
G1 X116.052 Y79.624 E32.23333
G1 X115.667 Y80.215 E32.27271
G1 X115.186 Y80.806 E32.31526
G1 X114.646 Y81.344 E32.35782
G1 X114.053 Y81.822 E32.40034
G1 X113.413 Y82.235 E32.44287
G1 X112.734 Y82.579 E32.48537
G1 X112.021 Y82.85 E32.52795
G1 X111.285 Y83.045 E32.57046
G1 X110.532 Y83.161 E32.613
G1 X109.8 Y83.198 E32.65392
G1 X101.5 Y83.198 E33.11733
G1 X100.739 Y83.158 E33.15988
G1 X99.987 Y83.039 E33.20239
G1 X99.251 Y82.841 E33.24494
G1 X98.54 Y82.567 E33.28748
G1 X97.862 Y82.221 E33.32998
G1 X97.223 Y81.805 E33.37255
G1 X96.632 Y81.324 E33.4151
G1 X96.094 Y80.784 E33.45765
G1 X95.616 Y80.191 E33.50018
G1 X95.25 Y79.624 E33.53786
G1 X94.952 Y79.624 E33.5545
G1 X94.567 Y80.215 E33.59388
G1 X94.086 Y80.806 E33.63642
G1 X93.546 Y81.344 E33.67898
G1 X92.953 Y81.822 E33.72151
G1 X92.313 Y82.235 E33.76403
G1 X91.634 Y82.579 E33.80653
G1 X90.921 Y82.85 E33.84912
G1 X90.185 Y83.045 E33.89163
G1 X89.432 Y83.161 E33.93417
G1 X88.7 Y83.198 E33.97509
G1 X79.186 Y83.198 E34.50628
G1 X78.425 Y83.158 E34.54882
G1 X77.673 Y83.039 E34.59133
G1 X76.937 Y82.841 E34.63388
G1 X76.226 Y82.567 E34.67643
G1 X75.548 Y82.221 E34.71893
G1 X74.909 Y81.805 E34.7615
G1 X74.318 Y81.324 E34.80404
G1 X73.78 Y80.784 E34.8466
G1 X73.302 Y80.191 E34.88912
G1 X72.889 Y79.551 E34.93165
G1 X72.545 Y78.872 E34.97415
G1 X72.274 Y78.159 E35.01674
G1 X72.079 Y77.423 E35.05925
G1 X71.963 Y76.67 E35.10178
G1 X71.926 Y75.938 E35.14271
G1 X71.926 Y72.614 E35.32829
G1 X71.966 Y71.853 E35.37084
G1 X72.085 Y71.101 E35.41335
G1 X72.283 Y70.365 E35.4559
G1 X72.557 Y69.654 E35.49844
G1 X72.903 Y68.976 E35.54094
G1 X72.985 Y68.851 E35.54929
G1 X73.085 Y68.216 E35.58518
G1 X73.283 Y67.48 E35.62773
G1 X73.557 Y66.769 E35.67027
G1 X73.903 Y66.091 E35.71277
G1 X74.319 Y65.452 E35.75534
G1 X74.495 Y65.236 E35.7709
G0 F1215 X74.8 Y64.861
M204 S1000
M205 X12 Y12
G0 F3600 X74.756 Y65.602
M204 S500
M205 X8 Y8
G1 F1350 X75.234 Y65.039 E35.81214
G1 X75.77 Y64.531 E35.85337
G1 X76.358 Y64.085 E35.89457
G1 X76.991 Y63.704 E35.93582
G1 X77.661 Y63.394 E35.97704
G1 X78.361 Y63.158 E36.01828
G1 X79.082 Y62.999 E36.05951
G1 X79.816 Y62.919 E36.10073
G1 X80.186 Y62.909 E36.12139
G1 X152.214 Y62.909 E40.14288
G1 X152.951 Y62.949 E40.18409
G1 X153.68 Y63.068 E40.22533
G1 X154.391 Y63.266 E40.26654
G1 X155.077 Y63.539 E40.30776
G1 X155.73 Y63.885 E40.34902
G1 X156.341 Y64.299 E40.39023
G1 X156.904 Y64.777 E40.43146
G1 X157.412 Y65.313 E40.47269
G1 X157.858 Y65.901 E40.5139
G1 X158.239 Y66.534 E40.55515
G1 X158.549 Y67.204 E40.59636
G1 X158.785 Y67.904 E40.63761
G1 X158.944 Y68.625 E40.67883
G1 X158.984 Y68.996 E40.69966
G1 X159.239 Y69.419 E40.72724
G1 X159.549 Y70.089 E40.76846
G1 X159.785 Y70.789 E40.8097
G1 X159.944 Y71.51 E40.85092
G1 X160.024 Y72.244 E40.89215
G1 X160.034 Y72.614 E40.91281
G1 X160.034 Y75.938 E41.0984
G1 X159.994 Y76.675 E41.13961
G1 X159.875 Y77.404 E41.18085
G1 X159.677 Y78.115 E41.22206
G1 X159.404 Y78.801 E41.26328
G1 X159.058 Y79.454 E41.30454
G1 X158.644 Y80.065 E41.34575
G1 X158.166 Y80.628 E41.38698
G1 X157.63 Y81.136 E41.42821
G1 X157.042 Y81.582 E41.46942
G1 X156.409 Y81.963 E41.51067
G1 X155.739 Y82.273 E41.55188
G1 X155.039 Y82.509 E41.59313
G1 X154.318 Y82.668 E41.63435
G1 X153.584 Y82.748 E41.67557
G1 X153.214 Y82.758 E41.69624
G1 X143.7 Y82.758 E42.22743
G1 X142.963 Y82.718 E42.26864
G1 X142.234 Y82.599 E42.30988
G1 X141.523 Y82.401 E42.35108
G1 X140.837 Y82.128 E42.39231
G1 X140.184 Y81.782 E42.43357
G1 X139.573 Y81.368 E42.47477
G1 X139.01 Y80.89 E42.51601
G1 X138.502 Y80.354 E42.55724
G1 X138.056 Y79.766 E42.59844
G1 X137.706 Y79.184 E42.63636
G1 X136.887 Y79.184 E42.68209
G1 X136.744 Y79.454 E42.69915
G1 X136.33 Y80.065 E42.74035
G1 X135.852 Y80.628 E42.78159
G1 X135.316 Y81.136 E42.82282
G1 X134.728 Y81.582 E42.86402
G1 X134.095 Y81.963 E42.90527
G1 X133.425 Y82.273 E42.94649
G1 X132.725 Y82.509 E42.98774
G1 X132.004 Y82.668 E43.02896
G1 X131.27 Y82.748 E43.07018
G1 X130.9 Y82.758 E43.09085
G1 X122.6 Y82.758 E43.55426
G1 X121.863 Y82.718 E43.59546
G1 X121.134 Y82.599 E43.6367
G1 X120.423 Y82.401 E43.67791
G1 X119.737 Y82.128 E43.71913
G1 X119.084 Y81.782 E43.76039
G1 X118.473 Y81.368 E43.8016
G1 X117.91 Y80.89 E43.84284
G1 X117.402 Y80.354 E43.88407
G1 X116.956 Y79.766 E43.92527
G1 X116.606 Y79.184 E43.96319
G1 X115.787 Y79.184 E44.00892
G1 X115.644 Y79.454 E44.02597
G1 X115.23 Y80.065 E44.06718
G1 X114.752 Y80.628 E44.10842
G1 X114.216 Y81.136 E44.14965
G1 X113.628 Y81.582 E44.19085
G1 X112.995 Y81.963 E44.2321
G1 X112.325 Y82.273 E44.27332
G1 X111.625 Y82.509 E44.31456
G1 X110.904 Y82.668 E44.35579
